src/img/HomePage/Chopsticks/1LeftTop.svg

<?xml version="1.0" encoding="UTF-8"?> <svg xmlns="http://www.w3.org/2000/svg" width="135" height="151" viewBox="0 0 135 151" fill="none"> <path fill-rule="evenodd" clip-rule="evenodd" d="M102.468 147.546C89.1324 140.284 87.3818 123.956 99.084 115.97C106.211 111.106 114.653 110.6 122.754 114.551C143.059 124.457 135.106 151.69 112.3 150.35C109.36 150.177 106.956 150.026 106.959 150.015C106.961 150.003 104.94 148.891 102.468 147.546ZM105.915 146.328C98.7537 143.411 94.1404 136.963 94.1302 129.856C94.1211 123.455 100.003 116.669 106.863 115.168C115.236 113.335 122.011 115.415 127.31 121.447C131.018 125.667 132.295 129.853 131.322 134.595C129.124 145.304 117.07 150.87 105.915 146.328ZM55.3071 129.376C53.5325 127.624 49.2419 121.606 45.7738 116.001C37.0223 101.86 32.1023 95.9469 25.4505 91.5773C10.6314 81.8437 7.94341 79.6861 4.79082 74.9949C-1.90033 65.0372 -1.02486 50.8325 7.32489 33.8637C14.6032 19.0717 17.1479 12.4846 17.9758 6.28859C18.5037 2.33943 19.087 0.479509 19.7559 0.612634C20.3035 0.721694 24.4501 3.44828 28.9705 6.67116C35.4431 11.2853 39.4837 13.454 47.9837 16.8751C60.8518 22.0534 67.1424 26.2914 72.4596 33.3674C80.14 43.5872 82.9101 56.4356 80.752 71.8264C79.1838 83.0119 61.9961 131.498 59.3075 132.323C58.8823 132.453 57.0826 131.127 55.3071 129.376ZM53.5973 122.654C51.3647 119.562 47.2443 113.325 44.441 108.791C37.4781 97.5271 33.898 93.8904 22.3388 86.3426C11.1935 79.0637 7.95855 76.1237 5.62507 71.1553C0.927269 61.153 2.67487 49.6996 11.6848 31.4286C14.9456 24.8178 18.3693 16.4406 19.5408 12.2057L21.6171 4.70082L28.8032 9.77274C34.0997 13.5112 38.8232 15.9832 46.7689 19.1765C59.896 24.4513 65.5303 28.4264 70.9466 36.2361C78.5974 47.2699 80.3595 58.81 76.8973 75.1977C74.2999 87.4864 59.8384 128.721 58.24 128.393C57.9199 128.328 55.8307 125.745 53.5973 122.654Z" fill="#201B19"></path> </svg>

<svg xmlns="http://www.w3.org/2000/svg" width="135" height="151" fill="none"><path fill-rule="evenodd" clip-rule="evenodd" d="M102.468 147.546c-13.336-7.262-15.086-23.59-3.384-31.576 7.127-4.864 15.569-5.37 23.67-1.419 20.305 9.906 12.352 37.139-10.454 35.799-2.94-.173-5.344-.324-5.341-.335.002-.012-2.019-1.124-4.491-2.469Zm3.447-1.218c-7.161-2.917-11.775-9.365-11.785-16.472-.009-6.401 5.873-13.187 12.733-14.688 8.373-1.833 15.148.247 20.447 6.279 3.708 4.22 4.985 8.406 4.012 13.148-2.198 10.709-14.252 16.275-25.407 11.733Zm-50.608-16.952c-1.775-1.752-6.065-7.77-9.533-13.375-8.752-14.141-13.672-20.054-20.323-24.424-14.82-9.733-17.508-11.89-20.66-16.582-6.691-9.958-5.816-24.163 2.534-41.131 7.278-14.792 9.823-21.38 10.65-27.575.529-3.95 1.112-5.81 1.78-5.676.549.109 4.695 2.835 9.216 6.058 6.472 4.614 10.513 6.783 19.013 10.204 12.868 5.178 19.158 9.416 24.476 16.492 7.68 10.22 10.45 23.069 8.292 38.46-1.568 11.185-18.756 59.671-21.444 60.496-.426.13-2.225-1.196-4-2.947Zm-1.71-6.722c-2.232-3.092-6.353-9.329-9.156-13.863-6.963-11.264-10.543-14.9-22.102-22.448-11.145-7.28-14.38-10.22-16.714-15.188C.927 61.153 2.675 49.7 11.685 31.43c3.26-6.611 6.684-14.988 7.856-19.223L21.617 4.7l7.186 5.072c5.297 3.738 10.02 6.21 17.966 9.404 13.127 5.274 18.761 9.25 24.178 17.06 7.65 11.033 9.412 22.573 5.95 38.96-2.597 12.29-17.059 53.524-18.657 53.196-.32-.065-2.41-2.648-4.643-5.739Z" fill="#201B19"/></svg>
